src/32/actions/view-group.svg

<svg version="1.1" viewBox="0 0 32 32" xmlns="http://www.w3.org/2000/svg">
 <defs>
  <style id="current-color-scheme" type="text/css">.ColorScheme-Text {
        color:#363636;
      }</style>
 </defs>
 <path class="ColorScheme-Text" d="m8 11v6h7v-6zm9 0v6h7v-6zm-8 1h5v4h-5zm9 0h5v4h-5zm-10 7v6h7v-6zm9 0v6h7v-6zm-8 1h5v4h-5zm9 0h5v4h-5z" fill="currentColor"/>
 <path class="ColorScheme-Text" d="m7 4c-1.662 0-3 1.338-3 3v18c0 1.662 1.338 3 3 3h18c1.662 0 3-1.338 3-3v-18c0-1.662-1.338-3-3-3zm0 1h18c1.108 0 2 0.892 2 2v1h-22v-1c0-1.108 0.892-2 2-2zm-2 4h22v16c0 1.108-0.892 2-2 2h-18c-1.108 0-2-0.892-2-2z" fill="currentColor"/>
</svg>

<svg xmlns="http://www.w3.org/2000/svg" viewBox="0 0 32 32">
  <defs
     id="defs3051">
    <style
       type="text/css"
       id="current-color-scheme">
      .ColorScheme-Text {
        color:#363636;
      }
      </style>
  </defs>
  <path
     style="fill:currentColor;fill-opacity:1;stroke:none" 
     d="M 4 4 L 4 28 L 28 28 L 28 4 L 4 4 z M 5 9 L 27 9 L 27 27 L 5 27 L 5 9 z M 8 11 L 8 17 L 15 17 L 15 11 L 8 11 z M 17 11 L 17 17 L 24 17 L 24 11 L 17 11 z M 9 12 L 14 12 L 14 16 L 9 16 L 9 12 z M 18 12 L 23 12 L 23 16 L 18 16 L 18 12 z M 8 19 L 8 25 L 15 25 L 15 19 L 8 19 z M 17 19 L 17 25 L 24 25 L 24 19 L 17 19 z M 9 20 L 14 20 L 14 24 L 9 24 L 9 20 z M 18 20 L 23 20 L 23 24 L 18 24 L 18 20 z "
     id="path45" 
     class="ColorScheme-Text"
     />
</svg>
